X: 2250
T: Babes In The Wood
R: polka
M: 2/4
K: Dmajor
|:A/B/A/G/ FA|de f2|g2 fe|df A2|
A/B/A/G/ FA|de f2|gg/g/ fe|d2 d2:|
|:e>f ed|ce a2|e>f ef|gf/e/ c/B/A|
e>f ed|ce a>f|ed cB|A2 A2:|

